assets/icons/uE026-settings.svg

<svg xmlns="http://www.w3.org/2000/svg" width="896" height="1232" viewBox="0 0 896 1232"><path d="M840 364q23 0 39.5 16.5T896 420v168q0 23-16.5 39.5T840 644h-62l42 41q16 15 18 40 0 23-17 40L711 876q-16 16-40 16t-39-17l-44-44v65q0 23-16.5 39.5T532 952H364q-23 0-39.5-16.5T308 896v-63l-41 43q-15 17-40 17-22 0-40-16L76 767q-16-18-16-40 0-25 17-40l43-43H56q-23 0-39.5-16.5T0 588V420q0-23 16.5-39.5T56 364h64l-44-42q-17-15-17-40 0-22 16-40l110-110q17-17 40-17 25 0 40 17l43 43v-63q0-23 16.5-39.5T364 56h168q23 0 39.5 16.5T588 112v63l42-44q15-15 40-17 23 0 40 17l111 110q16 16 16 40t-17 39l-44 44h64zm0 224V420H725q-5-22-26-59l82-80-111-111-79 82q-40-21-59-25V112H364v115q-19 4-59 26l-80-82-110 111 82 79q-20 34-25 59H56v168h116q4 19 26 59l-82 80 111 110 78-82q37 20 59 25v116h168V780q22-5 59-26l80 82 111-111-82-78q22-43 25-59h115zM448 336q70 0 119 49t49 119-49 119-119 49-119-49-49-119 49-119 119-49zm0 280q46 0 79-33t33-79-33-79-79-33-79 33-33 79 33 79 79 33z"/></svg>

<?xml version="1.0" encoding="UTF-8" standalone="no"?><svg   xmlns:svg="http://www.w3.org/2000/svg"   xmlns="http://www.w3.org/2000/svg"   version="1.1"   width="896"   height="1232"   viewBox="0 0 896 1232">  <path     d="M840 364Q863 364 879.5 380.5T896 420V588Q896 611 879.5 627.5T840 644H778L820 685Q836 700 838 725Q838 748 821 765L711 876Q695 892 671 892T632 875L588 831V896Q588 919 571.5 935.5T532 952H364Q341 952 324.5 935.5T308 896V833L267 876Q252 893 227 893Q205 893 187 877L76 767Q60 749 60 727Q60 702 77 687L120 644H56Q33 644 16.5 627.5T0 588V420Q0 397 16.5 380.5T56 364H120L76 322Q59 307 59 282Q59 260 75 242L185 132Q202 115 225 115Q250 115 265 132L308 175V112Q308 89 324.5 72.5T364 56H532Q555 56 571.5 72.5T588 112V175L630 131Q645 116 670 114Q693 114 710 131L821 241Q837 257 837 281T820 320L776 364H840zM840 588V420H725Q720 398 699 361L781 281L670 170L591 252Q551 231 532 227V112H364V227Q345 231 305 253L225 171L115 282L197 361Q177 395 172 420H56V588H172Q176 607 198 647L116 727L227 837L305 755Q342 775 364 780V896H532V780Q554 775 591 754L671 836L782 725L700 647Q722 604 725 588H840zM448 336Q518 336 567 385T616 504T567 623T448 672T329 623T280 504T329 385T448 336zM448 616Q494 616 527 583T560 504T527 425T448 392T369 425T336 504T369 583T448 616z"     id="icon53" /></svg>
